img/icons/search.svg

<svg fill="none" height="16" viewBox="0 0 16 16" width="16" xmlns="http://www.w3.org/2000/svg"><path d="m14.2125 13.3516-4.0578-4.05785c.6297-.81406.9703-1.80937.9703-2.85625 0-1.25312-.4891-2.42813-1.37344-3.31406-.88437-.88594-2.0625-1.37344-3.31406-1.37344s-2.42969.48906-3.31406 1.37344c-.88594.88437-1.37344 2.06094-1.37344 3.31406 0 1.25156.48906 2.42969 1.37344 3.31406.88437.88594 2.06094 1.37344 3.31406 1.37344 1.04688 0 2.04063-.3406 2.85469-.9688l4.05781 4.0563c.0119.0119.026.0213.0416.0278.0155.0064.0322.0098.049.0098.0169 0 .0335-.0034.0491-.0098.0155-.0065.0297-.0159.0415-.0278l.6813-.6797c.0119-.0119.0213-.026.0278-.0416.0064-.0155.0098-.0322.0098-.049s-.0034-.0335-.0098-.0491c-.0065-.0155-.0159-.0296-.0278-.0415zm-5.3-4.4391c-.6625.66094-1.54063 1.025-2.475 1.025-.93438 0-1.8125-.36406-2.475-1.025-.66094-.6625-1.025-1.54063-1.025-2.475 0-.93438.36406-1.81406 1.025-2.475.6625-.66094 1.54062-1.025 2.475-1.025.93437 0 1.81406.3625 2.475 1.025s1.025 1.54062 1.025 2.475c0 .93437-.36406 1.81406-1.025 2.475z" fill="#fa8c16"/></svg>

<svg width="16" height="16" viewBox="0 0 16 16" fill="none" xmlns="http://www.w3.org/2000/svg">
<path d="M14.2125 13.3516L10.1547 9.29375C10.7844 8.47969 11.125 7.48438 11.125 6.4375C11.125 5.18438 10.6359 4.00937 9.75156 3.12344C8.86719 2.2375 7.68906 1.75 6.4375 1.75C5.18594 1.75 4.00781 2.23906 3.12344 3.12344C2.2375 4.00781 1.75 5.18438 1.75 6.4375C1.75 7.68906 2.23906 8.86719 3.12344 9.75156C4.00781 10.6375 5.18438 11.125 6.4375 11.125C7.48438 11.125 8.47813 10.7844 9.29219 10.1562L13.35 14.2125C13.3619 14.2244 13.376 14.2338 13.3916 14.2403C13.4071 14.2467 13.4238 14.2501 13.4406 14.2501C13.4575 14.2501 13.4741 14.2467 13.4897 14.2403C13.5052 14.2338 13.5194 14.2244 13.5312 14.2125L14.2125 13.5328C14.2244 13.5209 14.2338 13.5068 14.2403 13.4912C14.2467 13.4757 14.2501 13.459 14.2501 13.4422C14.2501 13.4254 14.2467 13.4087 14.2403 13.3931C14.2338 13.3776 14.2244 13.3635 14.2125 13.3516ZM8.9125 8.9125C8.25 9.57344 7.37187 9.9375 6.4375 9.9375C5.50312 9.9375 4.625 9.57344 3.9625 8.9125C3.30156 8.25 2.9375 7.37187 2.9375 6.4375C2.9375 5.50312 3.30156 4.62344 3.9625 3.9625C4.625 3.30156 5.50312 2.9375 6.4375 2.9375C7.37187 2.9375 8.25156 3.3 8.9125 3.9625C9.57344 4.625 9.9375 5.50312 9.9375 6.4375C9.9375 7.37187 9.57344 8.25156 8.9125 8.9125Z" fill="#FA8C16"/>
</svg>
